icons/wompi.svg

<svg xmlns="http://www.w3.org/2000/svg" width="119" height="38" viewBox="0 0 119 38" fill="none">
<path d="M30.357 2.79702C31.3988 2.57326 32.4537 2.46138 33.5216 2.46138C34.6155 2.46138 35.6704 2.57326 36.6862 2.79702L29.9663 27.2989C28.7942 27.4978 27.6482 27.5972 26.5282 27.5972C25.5124 27.5972 24.3533 27.4978 23.051 27.2989L18.3626 10.8524L13.5962 27.2989C12.4241 27.4978 11.3041 27.5972 10.2362 27.5972C9.22039 27.5972 8.06133 27.4978 6.75902 27.2989L0 2.79702C1.0679 2.57326 2.12277 2.46138 3.16463 2.46138C4.23252 2.46138 5.2874 2.57326 6.32925 2.79702L10.705 20.0639L14.9245 2.79702C16.0185 2.57326 17.1645 2.46138 18.3626 2.46138C19.5608 2.46138 20.6808 2.57326 21.7226 2.79702L26.8016 20.1385L30.357 2.79702Z" fill="#2C2A29"/>
<path d="M45.801 27.6345C43.7434 27.6345 41.9462 27.2367 40.4094 26.4411C38.8727 25.6455 37.6876 24.5143 36.8541 23.0474C36.0206 21.5557 35.6039 19.8402 35.6039 17.9009C35.6039 15.9368 36.0336 14.2337 36.8932 12.7917C37.7527 11.3248 38.9508 10.1936 40.4876 9.39798C42.0503 8.60238 43.8215 8.20459 45.801 8.20459C47.8587 8.20459 49.6559 8.61482 51.1926 9.43528C52.7293 10.2309 53.9144 11.3621 54.7479 12.829C55.5814 14.2959 55.9981 15.9865 55.9981 17.9009C55.9981 19.8899 55.5814 21.6178 54.7479 23.0847C53.9144 24.5516 52.7293 25.6828 51.1926 26.4784C49.6559 27.2492 47.8587 27.6345 45.801 27.6345ZM45.801 22.7864C47.1815 22.7864 48.2363 22.3761 48.9656 21.5557C49.721 20.7104 50.0987 19.4921 50.0987 17.9009C50.0987 16.3594 49.721 15.1661 48.9656 14.3207C48.2103 13.4754 47.1554 13.0528 45.801 13.0528C44.4726 13.0528 43.4178 13.4878 42.6364 14.358C41.881 15.2033 41.5034 16.3843 41.5034 17.9009C41.5034 19.4921 41.881 20.7104 42.6364 21.5557C43.3917 22.3761 44.4466 22.7864 45.801 22.7864Z" fill="#2C2A29"/>
<path d="M80.0665 8.24188C82.2544 8.24188 84.0646 8.76399 85.4971 9.80821C86.9297 10.8524 87.6459 12.2447 87.6459 13.9851V27.2616H81.8246V15.9616C81.8246 14.992 81.499 14.2586 80.8479 13.7613C80.2227 13.2392 79.3242 12.9782 78.1521 12.9782C77.1102 12.9782 76.1074 13.1646 75.1437 13.5376C75.4563 14.358 75.6125 15.2531 75.6125 16.2227V27.2616H69.7912V15.9616C69.7912 14.992 69.4656 14.2586 68.8145 13.7613C68.1894 13.2392 67.2908 12.9782 66.1187 12.9782C65.2331 12.9782 64.3996 13.0776 63.6182 13.2765V27.2616H57.7187L57.7578 10.666C58.9038 9.89523 60.3103 9.29853 61.9773 8.87587C63.6443 8.45321 65.2722 8.24188 66.861 8.24188C68.0591 8.24188 69.1791 8.42835 70.221 8.80128C71.2628 9.14936 72.1744 9.6466 72.9558 10.293C73.9716 9.67147 75.1177 9.17422 76.3939 8.80128C77.6702 8.42835 78.8944 8.24188 80.0665 8.24188Z" fill="#2C2A29"/>
<path d="M98.9962 8.24188C102.565 8.24188 105.352 9.13692 107.357 10.927C109.389 12.7171 110.405 15.2531 110.405 18.5349C110.405 21.2449 109.701 23.4452 108.295 25.1359C106.914 26.8017 104.818 27.6345 102.005 27.6345C101.093 27.6345 100.168 27.4978 99.2307 27.2243C98.293 26.926 97.4204 26.5157 96.613 25.9936V32.8929C95.9879 33.3653 95.0502 33.788 93.8 34.1609C92.5758 34.5339 91.547 34.7203 90.7135 34.7203V9.69633C91.7033 9.24881 92.9275 8.90073 94.386 8.65211C95.8707 8.37862 97.4074 8.24188 98.9962 8.24188ZM99.5041 22.9356C101.145 22.9356 102.395 22.5378 103.255 21.7422C104.114 20.9466 104.544 19.6537 104.544 17.8636C104.544 16.3719 104.101 15.1412 103.216 14.1716C102.356 13.2019 101.067 12.7171 99.3479 12.7171C98.4883 12.7171 97.5767 12.7917 96.613 12.9409V22.6745C97.5246 22.8485 98.4883 22.9356 99.5041 22.9356Z" fill="#2C2A29"/>
<path d="M115.421 5.74321C114.588 5.74321 113.872 5.46972 113.272 4.92275C112.699 4.35092 112.413 3.6672 112.413 2.8716C112.413 2.07601 112.712 1.40472 113.312 0.857753C113.911 0.285918 114.614 0 115.421 0C116.255 0 116.971 0.285918 117.57 0.857753C118.169 1.40472 118.469 2.07601 118.469 2.8716C118.469 3.64234 118.169 4.31362 117.57 4.88546C116.971 5.45729 116.255 5.74321 115.421 5.74321ZM112.491 8.76399C113.351 8.41592 114.34 8.24188 115.46 8.24188C116.554 8.24188 117.531 8.41592 118.391 8.76399V27.2616H112.491V8.76399Z" fill="#2C2A29"/>
<path d="M5.79297 37.1192V33.2872C5.79297 32.9024 6.07507 32.5721 6.47163 32.5025C8.43147 32.1589 14.269 31.2124 19.115 31.2124C23.9728 31.2124 29.9695 32.1635 31.9661 32.5051C32.3647 32.5732 32.6484 32.9044 32.6484 33.2909V37.1391C32.6484 37.6953 32.0692 38.1053 31.5024 37.9762C29.6817 37.5613 25.6503 36.8642 19.115 36.8642C12.6571 36.8642 8.74598 37.5448 6.95735 37.9613C6.38562 38.0944 5.79297 37.6809 5.79297 37.1192Z" fill="#2C2A29"/>
</svg>

<svg xmlns="http://www.w3.org/2000/svg" width="119" height="38" fill="none"><path d="M30.357 2.797a15.028 15.028 0 0 1 3.165-.336c1.093 0 2.148.112 3.164.336l-6.72 24.502a20.532 20.532 0 0 1-3.438.298c-1.016 0-2.175-.1-3.477-.298l-4.688-16.447L13.596 27.3a20.099 20.099 0 0 1-3.36.298c-1.016 0-2.175-.1-3.477-.298L0 2.797a15.4 15.4 0 0 1 3.165-.336c1.068 0 2.122.112 3.164.336l4.376 17.267 4.22-17.267a17.124 17.124 0 0 1 3.438-.336c1.198 0 2.318.112 3.36.336l5.079 17.341 3.555-17.341ZM45.801 27.634c-2.058 0-3.855-.397-5.392-1.193-1.536-.796-2.721-1.927-3.555-3.394-.833-1.491-1.25-3.207-1.25-5.146 0-1.964.43-3.667 1.29-5.11.859-1.466 2.057-2.597 3.594-3.393 1.562-.796 3.334-1.193 5.313-1.193 2.058 0 3.855.41 5.392 1.23 1.536.796 2.721 1.927 3.555 3.394.833 1.467 1.25 3.157 1.25 5.072 0 1.989-.417 3.717-1.25 5.184-.834 1.467-2.019 2.598-3.555 3.393-1.537.771-3.334 1.156-5.392 1.156Zm0-4.848c1.38 0 2.435-.41 3.165-1.23.755-.846 1.133-2.064 1.133-3.655 0-1.542-.378-2.735-1.133-3.58-.756-.846-1.81-1.268-3.165-1.268-1.328 0-2.383.435-3.165 1.305-.755.845-1.133 2.026-1.133 3.543 0 1.591.378 2.81 1.133 3.655.756.82 1.81 1.23 3.165 1.23ZM80.067 8.242c2.187 0 3.998.522 5.43 1.566 1.433 1.044 2.149 2.437 2.149 4.177v13.277h-5.821v-11.3c0-.97-.326-1.703-.977-2.2-.625-.523-1.524-.784-2.696-.784a8.263 8.263 0 0 0-3.008.56c.312.82.468 1.715.468 2.685v11.039h-5.82v-11.3c0-.97-.326-1.703-.978-2.2-.625-.523-1.523-.784-2.695-.784-.886 0-1.72.1-2.5.299v13.985h-5.9l.039-16.596c1.146-.77 2.552-1.367 4.22-1.79a19.83 19.83 0 0 1 4.883-.634c1.198 0 2.318.186 3.36.56a8.437 8.437 0 0 1 2.735 1.491c1.016-.622 2.162-1.119 3.438-1.492 1.276-.373 2.5-.56 3.672-.56ZM98.996 8.242c3.569 0 6.356.895 8.361 2.685 2.032 1.79 3.048 4.326 3.048 7.608 0 2.71-.704 4.91-2.11 6.6-1.381 1.667-3.477 2.5-6.29 2.5a9.871 9.871 0 0 1-2.774-.41 10.86 10.86 0 0 1-2.618-1.231v6.899c-.625.472-1.563.895-2.813 1.268-1.224.373-2.253.56-3.087.56V9.695c.99-.447 2.215-.795 3.673-1.044a25.403 25.403 0 0 1 4.61-.41Zm.508 14.694c1.641 0 2.891-.398 3.751-1.194.859-.795 1.289-2.088 1.289-3.878 0-1.492-.443-2.723-1.328-3.692-.86-.97-2.149-1.455-3.868-1.455-.86 0-1.771.075-2.735.224v9.733c.912.175 1.875.262 2.891.262ZM115.421 5.743c-.833 0-1.549-.273-2.149-.82-.573-.572-.859-1.256-.859-2.051 0-.796.299-1.467.899-2.014.599-.572 1.302-.858 2.109-.858.834 0 1.55.286 2.149.858.599.547.899 1.218.899 2.014 0 .77-.3 1.442-.899 2.013a3.003 3.003 0 0 1-2.149.858Zm-2.93 3.021c.86-.348 1.849-.522 2.969-.522 1.094 0 2.071.174 2.931.522v18.498h-5.9V8.764ZM5.793 37.12v-3.833c0-.385.282-.715.679-.785 1.96-.343 7.797-1.29 12.643-1.29 4.858 0 10.855.951 12.851 1.293.399.068.682.4.682.786v3.848c0 .556-.579.966-1.146.837-1.82-.415-5.852-1.112-12.387-1.112-6.458 0-10.369.68-12.158 1.097-.571.133-1.164-.28-1.164-.842Z" fill="#2C2A29"/></svg>
